X: 20119
T: Jimmy's Favourite
R: jig
M: 6/8
K: Gmajor
d|:gbg gdB|G2G GAB|cdc cBA|E3E3|f2f fed|
faf f2e|1 ded ded|B3 B3:|2 ded def|g3 g3||
|:G2G GDB,|GDB, GDB,|G2G GAB|c3 c3|
F2F FED|FED FED|FGA cBA|G3 G3:|

